X:1
T:2 Menuet
T:Bach J.S. from: Etude for Anna Magdalena Bach
%%score { 1 | ( 2 3 ) }
L:1/8
M:3/4
K:G
V:1 treble nm="Piano" snm="Pno."
V:2 bass 
V:3 bass 
V:1
!p! .!5!d2 (!1!GABc | d2 .G2) .G2 | .!5!e2 (3(!3!c/!2!B/!1!c/def | g2 .G2) .G2 | (!4!c/B/c dcBA | %5
 !3!B2 cBAG | !2!F2 !1!GABG | BA- A4) |!mf! .!5!d2 (!1!GABc | d2 .G2) .G2 | %10
 .e2 (3(!3!c/!2!B/!1!c/def | g2 .G2) .G2 | (!4!c/B/c dcBA | !3!B2 cBAG | A2 BA!1!G!2!F | !1!G6) :: %16
!f! !5!b2 (!3!gabg | a2) (!1!defd | g2) (!2!efg!1!d | !3!^c2 Bc A2) | (!1!AB^c!1!def | %21
 !4!g2 f2 e2 | f2 A2 !2!^c2 | d6) |!p! .!5!d2 (!1!GF G2) | .e2 (!1!G!2!F G2) | (!5!d2 c2 B2 | %27
 !2!A!1!G!3!F!4!G !5!A2) |!f! (!1!DEF!1!GAB | !4!c2 B/c/B A2 | !3!Bd G2 !4!F2 | [B,DG]6) :| %32
V:2
 ([G,B,D]4 !4!A,2 | B,6) | (C6 | B,6) | (!4!A,6 | G,6) | (!1!D2 !3!B,2 G,2 | D2) (D,!1!CB,A,) | %8
 (!2!B,4 A,2 | !4!G,2 !2!B,2 G,2 | C6 | B,2) (!1!CB,A,G, | !2!A,4 F,2 | G,4) (!1!B,2 | %14
 !2!C2 D2 D,2 | !1!G,4 G,,2) :: (!2!G,6 | F,6) | (!4!E,2 !2!G,2 E,2 | A,4 A,,2) | (!4!A,6 | %21
 !3!B,2 !1!D2 ^C2 | D2 !5!F,2 A,2 | !1!D2 D,2 !1!=C2) | z2 D4 | z2 E4 | (!3!B,2 A,2 G,2 | D4) z2 | %28
 z2 z2 (!2!F,2 | E,2 !1!G,2 !2!F,2 | G,2 !4!B,,2 !2!D,2 | !1!G,2 D,2 G,,2) :| %32
V:3
 x6 | x6 | x6 | x6 | x6 | x6 | x6 | x6 | x6 | x6 | x6 | x6 | x6 | x6 | x6 | x6 :: x6 | x6 | x6 | %19
 x6 | x6 | x6 | x6 | x6 | !3!B,4 !3!B,2 | !2!C4 !2!C2 | x6 | x6 | !4!D,6 | x6 | x6 | x6 :| %32

